assets/Person bowing/Medium/Flat/person_bowing_flat_medium.svg

<svg width="32" height="32" viewBox="0 0 32 32" fill="none" xmlns="http://www.w3.org/2000/svg">
<path d="M26.9159 19.1883C26.3551 17.8593 25.0532 17 23.6111 17H8.30881C6.86672 17 5.56482 17.8593 5.00401 19.1883L2.25 25.83H7L14.5 30H17.5L25 25.85L29.75 25.8332L26.9159 19.1883Z" fill="#FF6723"/>
<path d="M11.3069 25.6878C11.203 25.6488 11.0888 25.6195 10.9745 25.5902L6.31067 24.1951C6.20681 24.1561 6.09257 24.1268 5.97833 24.0976C5.72903 24.039 5.45892 24 5.18886 24C3.42304 24 2 25.3463 2 26.9951C2 28.6439 3.42304 30 5.17847 30H9C9.63362 29.5415 13 28.8293 13 28.0195C13 26.9561 12.2937 26.0488 11.3069 25.6878Z" fill="#FF8101"/>
<path d="M20.6931 25.6878C20.797 25.6488 20.9112 25.6195 21.0255 25.5902L25.6893 24.1951C25.7932 24.1561 25.9074 24.1268 26.0217 24.0976C26.271 24.039 26.5411 24 26.8111 24C28.577 24 30 25.3463 30 26.9951C30 28.6439 28.577 30 26.8215 30H23C22.3664 29.5415 19 28.8293 19 28.0195C19 26.9561 19.7063 26.0488 20.6931 25.6878Z" fill="#FF8101"/>
<path d="M15.6595 4.7893L14.5378 2.54181C14.4177 2.29097 14.5979 2 14.8783 2H17.1217C17.4021 2 17.5823 2.29097 17.4622 2.54181L16.3405 4.7893C16.1903 5.07023 15.7997 5.07023 15.6595 4.7893Z" fill="#46A4FB"/>
<path d="M10.5122 5.98165L8.1322 5.19165C7.8722 5.10165 7.7922 4.77165 7.9922 4.57165L9.5722 2.99165C9.7722 2.79165 10.1022 2.87165 10.1922 3.14165L10.9822 5.52165C11.0822 5.80165 10.8022 6.08165 10.5122 5.98165Z" fill="#46A4FB"/>
<path d="M23.8607 5.19006L21.4907 5.98006C21.2007 6.08006 20.9207 5.80006 21.0207 5.52006L21.8107 3.14006C21.9007 2.87006 22.2307 2.79006 22.4307 2.99006L24.0107 4.57006C24.2007 4.77006 24.1207 5.10006 23.8607 5.19006Z" fill="#46A4FB"/>
<path d="M11.75 17.75C11.75 18.8546 10.8546 19.75 9.75 19.75C8.64543 19.75 7.75 18.8546 7.75 17.75C7.75 16.6454 8.64543 15.75 9.75 15.75C10.8546 15.75 11.75 16.6454 11.75 17.75Z" fill="#BB806E"/>
<path d="M24.25 17.75C24.25 18.8546 23.3546 19.75 22.25 19.75C21.1454 19.75 20.25 18.8546 20.25 17.75C20.25 16.6454 21.1454 15.75 22.25 15.75C23.3546 15.75 24.25 16.6454 24.25 17.75Z" fill="#BB806E"/>
<path d="M14.6 8.52002H17.42C20.58 8.52002 23.01 11.31 22.6 14.43L22 21.7C22 21.7 21.5601 26 16.03 26C10.5 26 10 21.7 10 21.7L9.43004 14.43C9.07004 11.16 11.44 8.52002 14.6 8.52002Z" fill="#C68D7B"/>
<path d="M11.2 20.88C11.4 20.11 12.1 19.53 12.94 19.53C13.81 19.53 14.53 20.15 14.68 20.97C14.72 21.15 14.57 21.32 14.39 21.32H11.54C11.32 21.32 11.14 21.1 11.2 20.88Z" fill="white"/>
<path d="M20.8 20.88C20.6 20.11 19.9 19.53 19.06 19.53C18.19 19.53 17.47 20.15 17.32 20.97C17.28 21.15 17.43 21.32 17.61 21.32H20.46C20.68 21.32 20.86 21.1 20.8 20.88Z" fill="white"/>
<path d="M11.3301 18.55C11.4001 18.64 11.5001 18.69 11.6101 18.69C11.6801 18.69 11.7601 18.67 11.8201 18.62C11.8301 18.61 12.5901 18.05 13.7001 18.18C13.9001 18.2 14.0701 18.06 14.0901 17.87C14.1101 17.68 13.9701 17.5 13.7801 17.48C12.3877 17.311 11.4404 18.0223 11.3908 18.0595C11.2408 18.1795 11.2101 18.4 11.3301 18.55Z" fill="#593B39"/>
<path d="M20.1801 18.62C20.2401 18.67 20.3201 18.69 20.3901 18.69C20.4901 18.69 20.6001 18.65 20.6701 18.55C20.7901 18.4 20.7601 18.18 20.6101 18.06C20.5605 18.0228 19.6125 17.311 18.2201 17.48C18.0201 17.5 17.8901 17.68 17.9101 17.87C17.9301 18.06 18.1001 18.19 18.3001 18.18C19.4101 18.05 20.1701 18.61 20.1801 18.62Z" fill="#593B39"/>
<path d="M12.06 21.02C12.06 20.39 12.57 19.88 13.2 19.88C13.83 19.88 14.34 20.4 14.34 21.02C14.34 21.12 14.33 21.22 14.3 21.32H12.1C12.08 21.23 12.06 21.13 12.06 21.02Z" fill="#7D4533"/>
<path d="M19.94 21.02C19.94 20.39 19.43 19.88 18.8 19.88C18.17 19.88 17.65 20.4 17.66 21.02C17.66 21.12 17.67 21.22 17.7 21.32H19.9C19.92 21.23 19.94 21.13 19.94 21.02Z" fill="#7D4533"/>
<path d="M13.2 20.37C13.56 20.37 13.85 20.66 13.85 21.02C13.85 21.13 13.83 21.23 13.78 21.32H12.62C12.58 21.23 12.55 21.13 12.55 21.02C12.55 20.66 12.84 20.37 13.2 20.37Z" fill="black"/>
<path d="M18.79 20.37C18.43 20.37 18.14 20.66 18.14 21.02C18.14 21.13 18.17 21.23 18.21 21.32H19.37C19.41 21.23 19.44 21.13 19.44 21.02C19.44 20.66 19.15 20.37 18.79 20.37Z" fill="black"/>
<path d="M15.52 20.92L14.86 23.06C14.72 23.5 15.05 23.94 15.51 23.94H16.49C16.95 23.94 17.28 23.49 17.14 23.06L16.48 20.92C16.33 20.45 15.66 20.45 15.52 20.92Z" fill="#AB6A55"/>
<path d="M11.3354 26.6531C11.1213 26.551 10.8878 26.5 10.6445 26.5C9.72987 26.5102 8.99036 27.2857 9.00009 28.2347L9.00983 30H14.7313C15.1595 30 15.5 29.602 15.5 29.1531C15.5 28.8367 15.3151 28.551 15.0427 28.4184L11.3354 26.6531Z" fill="#C68D7B"/>
<path d="M20.6646 26.6531C20.8787 26.551 21.1122 26.5 21.3555 26.5C22.2701 26.5102 23.0096 27.2857 22.9999 28.2347L23 30H17.2687C16.8405 30 16.5 29.602 16.5 29.1531C16.5 28.8367 16.6849 28.551 16.9573 28.4184L20.6646 26.6531Z" fill="#C68D7B"/>
<path d="M23.8485 11.1489C23.4679 10.4943 22.8868 10.0311 22.2257 9.80954C21.5044 9.56786 20.8833 9.09457 20.4926 8.44002C19.9717 7.57399 19.02 7 17.9381 7C17.5273 7 17.1266 7.08056 16.766 7.24168C16.2751 7.45315 15.7241 7.45315 15.2333 7.24168C14.8827 7.08056 14.4819 7 14.0712 7C13.0093 7 12.0677 7.56392 11.5467 8.39974C11.136 9.06436 10.5049 9.55779 9.7736 9.80954C9.08238 10.0512 8.4713 10.5447 8.10064 11.2395C7.55968 12.2566 7.66988 13.4549 8.28096 14.3612C8.50135 14.6935 8.63158 15.0762 8.63158 15.479V15.5394V16.4457V17.4628C8.63158 18.0368 9.12899 18.5 9.7 18.5L9.66341 18.0569V18.067C9.66341 15.6905 11.4265 14.5425 13.7907 14.5425H15.5038C15.8243 14.5727 16.0948 14.7741 16.215 15.0762C16.7159 16.194 17.8279 16.9089 19.05 16.9089H20.6128C21.5244 16.9492 22.2657 16.8485 22.3659 17.7447L22.35 18.4899C22.901 18.4899 23.3577 18.0468 23.3577 17.493V16.768V15.4689C23.3577 15.0762 23.4779 14.6835 23.7083 14.3612C24.3594 13.4448 24.4496 12.1961 23.8485 11.1489Z" fill="#593B39"/>
<path d="M13.01 20.57C13.01 20.6805 12.9205 20.77 12.81 20.77C12.6996 20.77 12.61 20.6805 12.61 20.57C12.61 20.4595 12.6996 20.37 12.81 20.37C12.9205 20.37 13.01 20.4595 13.01 20.57Z" fill="white"/>
<path d="M18.64 20.57C18.64 20.6805 18.5504 20.77 18.44 20.77C18.3295 20.77 18.24 20.6805 18.24 20.57C18.24 20.4595 18.3295 20.37 18.44 20.37C18.5504 20.37 18.64 20.4595 18.64 20.57Z" fill="white"/>
</svg>

<svg xmlns="http://www.w3.org/2000/svg" width="32" height="32" fill="none"><path fill="#FF6723" d="M26.916 19.188A3.583 3.583 0 0 0 23.61 17H8.31c-1.442 0-2.744.86-3.305 2.188L2.25 25.83H7L14.5 30h3l7.5-4.15 4.75-.017-2.834-6.645Z"/><path fill="#FF8101" d="M11.307 25.688a3.27 3.27 0 0 0-.332-.098L6.31 24.195A3.486 3.486 0 0 0 5.189 24C3.423 24 2 25.346 2 26.995S3.423 30 5.178 30H9c.634-.459 4-1.17 4-1.98 0-1.064-.706-1.971-1.693-2.332ZM20.693 25.688a3.27 3.27 0 0 1 .332-.098l4.664-1.395A3.485 3.485 0 0 1 26.811 24C28.577 24 30 25.346 30 26.995S28.577 30 26.822 30H23c-.634-.459-4-1.17-4-1.98 0-1.064.706-1.971 1.693-2.332Z"/><path fill="#46A4FB" d="m15.66 4.79-1.122-2.248a.377.377 0 0 1 .34-.542h2.244c.28 0 .46.291.34.542L16.34 4.789a.38.38 0 0 1-.68 0ZM10.512 5.982l-2.38-.79a.373.373 0 0 1-.14-.62l1.58-1.58c.2-.2.53-.12.62.15l.79 2.38c.1.28-.18.56-.47.46ZM23.86 5.19l-2.37.79c-.29.1-.57-.18-.47-.46l.79-2.38c.09-.27.42-.35.62-.15l1.58 1.58c.19.2.11.53-.15.62Z"/><path fill="#BB806E" d="M11.75 17.75a2 2 0 1 1-4 0 2 2 0 0 1 4 0ZM24.25 17.75a2 2 0 1 1-4 0 2 2 0 0 1 4 0Z"/><path fill="#C68D7B" d="M14.6 8.52h2.82c3.16 0 5.59 2.79 5.18 5.91L22 21.7s-.44 4.3-5.97 4.3C10.5 26 10 21.7 10 21.7l-.57-7.27c-.36-3.27 2.01-5.91 5.17-5.91Z"/><path fill="#fff" d="M11.2 20.88c.2-.77.9-1.35 1.74-1.35.87 0 1.59.62 1.74 1.44.04.18-.11.35-.29.35h-2.85c-.22 0-.4-.22-.34-.44ZM20.8 20.88c-.2-.77-.9-1.35-1.74-1.35-.87 0-1.59.62-1.74 1.44-.04.18.11.35.29.35h2.85c.22 0 .4-.22.34-.44Z"/><path fill="#593B39" d="M11.33 18.55a.35.35 0 0 0 .49.07c.01-.01.77-.57 1.88-.44.2.02.37-.12.39-.31a.357.357 0 0 0-.31-.39c-1.392-.169-2.34.542-2.39.58a.35.35 0 0 0-.06.49ZM20.18 18.62c.06.05.14.07.21.07.1 0 .21-.04.28-.14a.35.35 0 0 0-.06-.49c-.05-.037-.997-.749-2.39-.58-.2.02-.33.2-.31.39.02.19.19.32.39.31 1.11-.13 1.87.43 1.88.44Z"/><path fill="#7D4533" d="M12.06 21.02a1.14 1.14 0 1 1 2.24.3h-2.2a1.36 1.36 0 0 1-.04-.3ZM19.94 21.02c0-.63-.51-1.14-1.14-1.14-.63 0-1.15.52-1.14 1.14 0 .1.01.2.04.3h2.2c.02-.09.04-.19.04-.3Z"/><path fill="#000" d="M13.2 20.37c.36 0 .65.29.65.65 0 .11-.02.21-.07.3h-1.16a.735.735 0 0 1-.07-.3c0-.36.29-.65.65-.65ZM18.79 20.37c-.36 0-.65.29-.65.65 0 .11.03.21.07.3h1.16c.04-.09.07-.19.07-.3 0-.36-.29-.65-.65-.65Z"/><path fill="#AB6A55" d="m15.52 20.92-.66 2.14c-.14.44.19.88.65.88h.98c.46 0 .79-.45.65-.88l-.66-2.14c-.15-.47-.82-.47-.96 0Z"/><path fill="#C68D7B" d="M11.335 26.653a1.595 1.595 0 0 0-.69-.153c-.915.01-1.655.786-1.645 1.735L9.01 30h5.721c.428 0 .769-.398.769-.847a.822.822 0 0 0-.457-.735l-3.708-1.765ZM20.665 26.653c.214-.102.447-.153.69-.153.915.01 1.655.786 1.645 1.735V30h-5.731c-.428 0-.769-.398-.769-.847 0-.316.185-.602.457-.735l3.708-1.765Z"/><path fill="#593B39" d="M23.849 11.149a2.974 2.974 0 0 0-1.623-1.34 3.174 3.174 0 0 1-1.733-1.369A2.976 2.976 0 0 0 17.938 7c-.41 0-.811.08-1.172.242a1.93 1.93 0 0 1-1.533 0A2.794 2.794 0 0 0 14.071 7a2.982 2.982 0 0 0-2.524 1.4 3.37 3.37 0 0 1-1.773 1.41A3.024 3.024 0 0 0 8.1 11.24a3.035 3.035 0 0 0 .18 3.121c.22.332.35.715.35 1.118v1.984c0 .574.498 1.037 1.069 1.037l-.037-.443v.01c0-2.377 1.764-3.524 4.128-3.524h1.713c.32.03.59.231.711.533a3.105 3.105 0 0 0 2.835 1.833h1.563c.911.04 1.653-.06 1.753.836l-.016.745c.551 0 1.008-.443 1.008-.997v-2.025c0-.392.12-.784.35-1.107a2.977 2.977 0 0 0 .14-3.212Z"/><path fill="#fff" d="M13.01 20.57a.2.2 0 1 1-.4 0 .2.2 0 0 1 .4 0ZM18.64 20.57a.2.2 0 1 1-.4 0 .2.2 0 0 1 .4 0Z"/></svg>
